assets/symbols/mulberry/backstop.svg

<svg height="850.394" viewBox="0 0 850.394 850.394" width="850.394" xmlns="http://www.w3.org/2000/svg"><g fill="none"><g stroke="#231f20"><path d="m311.873 289.438h228.278v297.205h-228.278z" stroke-width="21"/><path d="m311.873 512.333h228.277m-228.277-74.294h228.277m-228.277-74.297h228.277m-57.071-74.304v297.205m-57.07-297.205v297.205m-57.069-297.205v297.205" stroke-width="14"/><path d="m83.155 252.182 228.272 37.597v297.205h-228.272z" stroke-width="21"/><path d="m83.155 458.962 228.272 21.489m-228.272-89.314 228.272 31.131m-228.272-106.527 228.272 37.597m-57.068-68.929v302.575m-57.071-318.691v318.691m-57.061-324.061v324.061m-57.072-57.293 228.272 8.949" stroke-width="14"/><path d="m767.299 252.422-228.273 37.6v297.196h228.273z" stroke-width="21"/><path d="m767.299 459.202-228.273 21.488m228.273-89.313-228.273 31.131m228.273-106.524-228.273 37.598m57.066-68.934v302.57m57.071-318.681v318.681m57.07-324.052v324.052m57.066-57.292-228.273 8.947" stroke-width="14"/></g><path d="m0 0h850.394v850.394h-850.394z"/></g></svg>

<svg xmlns="http://www.w3.org/2000/svg" width="850.394" height="850.394" viewBox="0 0 850.394 850.394" overflow="visible"><path fill="none" stroke="#231f20" stroke-width="21" d="M311.873 289.438h228.278v297.205H311.873z"/><path fill="none" stroke="#231f20" stroke-width="14" d="M311.873 512.333H540.15M311.873 438.039H540.15M311.873 363.742H540.15M483.079 289.438v297.205M426.009 289.438v297.205M368.94 289.438v297.205"/><path fill="none" stroke="#231f20" stroke-width="21" d="M83.155 252.182l228.272 37.597v297.205H83.155z"/><path fill="none" stroke="#231f20" stroke-width="14" d="M83.155 458.962l228.272 21.489M83.155 391.137l228.272 31.131M83.155 315.741l228.272 37.597M254.359 284.409v302.575M197.288 268.293v318.691M140.227 262.923v324.061M83.155 529.691l228.272 8.949"/><path fill="none" stroke="#231f20" stroke-width="21" d="M767.299 252.422l-228.273 37.6v297.196h228.273z"/><path fill="none" stroke="#231f20" stroke-width="14" d="M767.299 459.202L539.026 480.69M767.299 391.377l-228.273 31.131M767.299 315.984l-228.273 37.598M596.092 284.648v302.57M653.163 268.537v318.681M710.233 263.166v324.052M767.299 529.926l-228.273 8.947"/><path fill="none" d="M0 0h850.394v850.394H0z"/></svg>
